images_elementary_svg/cmd/lc_toggletitle.svg

<svg viewBox="0 0 24 24" xmlns="http://www.w3.org/2000/svg" xmlns:xlink="http://www.w3.org/1999/xlink"><linearGradient id="a" gradientTransform="translate(15.968656 11.968657)" gradientUnits="userSpaceOnUse" x1="12.031344" x2="12.031344" y1="3.031343" y2="12.031343"><stop offset="0" stop-color="#fff"/><stop offset=".00000007" stop-color="#fff" stop-opacity=".235294"/><stop offset="1" stop-color="#fff" stop-opacity=".156863"/><stop offset="1" stop-color="#fff" stop-opacity=".392157"/></linearGradient><linearGradient id="b" gradientTransform="matrix(.9999874 0 0 .9999874 -10.002767 -.016593)" gradientUnits="userSpaceOnUse" x1="14.551723" x2="14.50295" xlink:href="#a" y1="9.016707" y2="17.016808"/><linearGradient id="c" gradientUnits="userSpaceOnUse" x1="18.635593" x2="9" xlink:href="#g" y1="18.682203" y2="6.580508"/><linearGradient id="d" gradientUnits="userSpaceOnUse" x1="24.635593" x2="15" xlink:href="#g" y1="18.673729" y2="6.572034"/><linearGradient id="e" gradientTransform="matrix(.9999874 0 0 .9999874 -4.002767 3.974933)" gradientUnits="userSpaceOnUse" x1="14.50295" x2="14.50295" xlink:href="#a" y1="8.025168" y2="13.016757"/><linearGradient id="f"><stop offset="0" stop-color="#737373"/><stop offset=".26238" stop-color="#636363"/><stop offset=".704952" stop-color="#4b4b4b"/><stop offset="1" stop-color="#3f3f3f"/></linearGradient><linearGradient id="g"><stop offset="0" stop-opacity=".658824"/><stop offset="1" stop-color="#5c5c5c"/></linearGradient><radialGradient id="h" cx="-1.473815" cy="-42.064499" gradientTransform="matrix(-2.8642857 .00000019 -.00000015 -2.1857141 8.778565 -80.012447)" gradientUnits="userSpaceOnUse" r="10" xlink:href="#f"/><radialGradient id="i" cx="-1.473815" cy="-42.064499" gradientTransform="matrix(-.00000019 -2.8642857 2.1857141 -.00000015 104.01244 8.778566)" gradientUnits="userSpaceOnUse" r="10" xlink:href="#f"/><g stroke-linejoin="round"><g transform="translate(-1.020634 -.020634)"><path d="m15.483051 10.5h3.016949v8h-3.01695z" fill="url(#d)" stroke="#000" stroke-opacity=".6"/><path d="m9.5 7.516949h3.016949l-.01695 10.991525h-3.016949z" fill="url(#c)" stroke="#000" stroke-opacity=".6"/><g fill="none" stroke-width=".999987"><path d="m10.5 8.4999997h1.048774l-.048774 9.0000003h-1z" opacity=".7" stroke="url(#b)"/><path d="m16.483051 11.491526h1.048774l-.03182 6h-1z" opacity=".7" stroke="url(#e)"/></g></g><g fill="none" stroke-linecap="round"><path d="m2.5 18.499949v.998047.002c6.333334-.01 12.666668.01 19 .000004v-1h-19z" stroke="url(#h)"/><path d="m5.500047 2.5000001h-.998047-.002c.01 6.3333345.0154 12.6666679.02539 18.9999999h.974606v-18.9999999z" stroke="url(#i)"/></g><path d="m8.5 2.5h12v2h-12z" fill="#fcaf3e" stroke="#ce5c00" stroke-miterlimit="0"/></g></svg>

<?xml version="1.0" encoding="UTF-8" standalone="no"?>
<svg
   xmlns:dc="http://purl.org/dc/elements/1.1/"
   xmlns:cc="http://creativecommons.org/ns#"
   xmlns:rdf="http://www.w3.org/1999/02/22-rdf-syntax-ns#"
   xmlns:svg="http://www.w3.org/2000/svg"
   xmlns="http://www.w3.org/2000/svg"
   xmlns:xlink="http://www.w3.org/1999/xlink"
   xmlns:sodipodi="http://sodipodi.sourceforge.net/DTD/sodipodi-0.dtd"
   xmlns:inkscape="http://www.inkscape.org/namespaces/inkscape"
   viewBox="0 0 24 24"
   version="1.1"
   id="svg36"
   sodipodi:docname="lc_toggletitle.svg"
   inkscape:version="0.92.4 (unknown)"
   inkscape:export-filename="/home/rizmut/Dokumen/Rizmut/Github/libreoffice-style-elementary/images_elementary/cmd/lc_toggletitle.png"
   inkscape:export-xdpi="96"
   inkscape:export-ydpi="96">
  <metadata
     id="metadata42">
    <rdf:RDF>
      <cc:Work
         rdf:about="">
        <dc:format>image/svg+xml</dc:format>
        <dc:type
           rdf:resource="http://purl.org/dc/dcmitype/StillImage" />
      </cc:Work>
    </rdf:RDF>
  </metadata>
  <defs
     id="defs40">
    <linearGradient
       gradientTransform="translate(15.968656,11.968657)"
       id="g"
       gradientUnits="userSpaceOnUse"
       x1="12.031344"
       x2="12.031344"
       y1="3.031343"
       y2="12.031343">
      <stop
         offset="0"
         stop-color="#fff"
         id="stop1239" />
      <stop
         offset="0.00000007"
         stop-color="#fff"
         stop-opacity=".235294"
         id="stop1241" />
      <stop
         offset="1"
         stop-color="#fff"
         stop-opacity=".156863"
         id="stop1243" />
      <stop
         offset="1"
         stop-color="#fff"
         stop-opacity=".392157"
         id="stop1245" />
    </linearGradient>
    <linearGradient
       gradientTransform="matrix(0.9999874,0,0,0.9999874,-10.002767,-0.016593)"
       id="b-3-2"
       gradientUnits="userSpaceOnUse"
       x1="14.551723"
       x2="14.50295"
       xlink:href="#g"
       y1="9.0167065"
       y2="17.016808" />
    <linearGradient
       id="d-3"
       gradientUnits="userSpaceOnUse"
       x1="18.635593"
       x2="9"
       xlink:href="#c"
       y1="18.682203"
       y2="6.5805082" />
    <linearGradient
       id="linearGradient889">
      <stop
         offset="0"
         stop-opacity=".658824"
         id="stop12-6" />
      <stop
         offset="1"
         stop-color="#5c5c5c"
         id="stop14-7" />
    </linearGradient>
    <linearGradient
       id="b-5"
       gradientUnits="userSpaceOnUse"
       x1="25.635593"
       x2="16"
       xlink:href="#c"
       y1="18.682203"
       y2="6.5805082"
       gradientTransform="translate(-1,-0.008474)" />
    <linearGradient
       inkscape:collect="always"
       xlink:href="#g"
       id="linearGradient869"
       gradientUnits="userSpaceOnUse"
       gradientTransform="matrix(0.9999874,0,0,0.9999874,-4.002767,3.974933)"
       x1="14.50295"
       y1="8.0251675"
       x2="14.50295"
       y2="13.016757" />
  </defs>
  <sodipodi:namedview
     pagecolor="#ffffff"
     bordercolor="#666666"
     borderopacity="1"
     objecttolerance="10"
     gridtolerance="10"
     guidetolerance="10"
     inkscape:pageopacity="0"
     inkscape:pageshadow="2"
     inkscape:window-width="1360"
     inkscape:window-height="714"
     id="namedview38"
     showgrid="true"
     inkscape:zoom="32"
     inkscape:cx="7.6655726"
     inkscape:cy="18.625571"
     inkscape:window-x="0"
     inkscape:window-y="28"
     inkscape:window-maximized="1"
     inkscape:current-layer="g34">
    <inkscape:grid
       type="xygrid"
       id="grid849" />
  </sodipodi:namedview>
  <linearGradient
     id="a">
    <stop
       offset="0"
       stop-color="#737373"
       id="stop2" />
    <stop
       offset=".26238"
       stop-color="#636363"
       id="stop4" />
    <stop
       offset=".704952"
       stop-color="#4b4b4b"
       id="stop6" />
    <stop
       offset="1"
       stop-color="#3f3f3f"
       id="stop8" />
  </linearGradient>
  <linearGradient
     id="b"
     gradientUnits="userSpaceOnUse"
     x1="25.635593"
     x2="16"
     xlink:href="#c"
     y1="18.682203"
     y2="6.580508" />
  <linearGradient
     id="c">
    <stop
       offset="0"
       stop-opacity=".658824"
       id="stop12" />
    <stop
       offset="1"
       stop-color="#5c5c5c"
       id="stop14" />
  </linearGradient>
  <linearGradient
     id="d"
     gradientUnits="userSpaceOnUse"
     x1="18.635593"
     x2="9"
     xlink:href="#c"
     y1="18.682203"
     y2="6.580508" />
  <radialGradient
     id="e"
     cx="-1.473815"
     cy="-42.064499"
     gradientTransform="matrix(-2.8642857,1.9e-7,-1.5e-7,-2.1857141,8.778565,-80.012447)"
     gradientUnits="userSpaceOnUse"
     r="10"
     xlink:href="#a" />
  <radialGradient
     id="f"
     cx="-1.473815"
     cy="-42.064499"
     gradientTransform="matrix(-1.9e-7,-2.8642857,2.1857141,-1.5e-7,104.01244,8.778566)"
     gradientUnits="userSpaceOnUse"
     r="10"
     xlink:href="#a" />
  <g
     stroke-linejoin="round"
     id="g34">
    <g
       id="g900"
       transform="translate(-1.020634,-0.020634)">
      <path
         sodipodi:nodetypes="ccccc"
         inkscape:connector-curvature="0"
         style="opacity:1;fill:url(#b-5);stroke:#000000;stroke-opacity:0.6"
         id="path20-3"
         d="M 15.483051,10.5 H 18.5 v 8 h -3.01695 z" />
      <path
         style="opacity:1;fill:url(#d-3);stroke:#000000;stroke-opacity:0.6"
         id="path22-5"
         d="m 9.5,7.516949 h 3.016949 l -0.01695,10.991525 H 9.48305 Z"
         inkscape:connector-curvature="0"
         sodipodi:nodetypes="ccccc" />
      <path
         sodipodi:nodetypes="ccccc"
         id="path31"
         d="m 10.5,8.4999997 h 1.048774 L 11.5,17.5 h -1 z"
         style="opacity:0.7;fill:none;stroke:url(#b-3-2);stroke-width:0.99998742"
         inkscape:connector-curvature="0" />
      <path
         inkscape:connector-curvature="0"
         style="opacity:0.7;fill:none;stroke:url(#linearGradient869);stroke-width:0.99998742"
         d="m 16.483051,11.491526 h 1.048774 l -0.03182,6 h -1 z"
         id="path867"
         sodipodi:nodetypes="ccccc" />
    </g>
    <g
       style="fill:none;stroke-linecap:round"
       id="g28">
      <path
         inkscape:connector-curvature="0"
         style="stroke:url(#e)"
         id="path24"
         d="m 2.5,18.499949 v 0.998047 0.002 c 6.333334,-0.01 12.666668,0.01 19,4e-6 v -1 h -19 z"
         sodipodi:nodetypes="ccccccc" />
      <path
         inkscape:connector-curvature="0"
         style="stroke:url(#f)"
         id="path26"
         d="M 5.500047,2.5000001 H 4.502 4.5 C 4.51,8.8333346 4.5154,15.166668 4.52539,21.5 H 5.499996 V 2.5000001 Z" />
    </g>
    <path
       d="m 8.5,2.5 h 12 v 2 h -12 z"
       stroke-miterlimit="0"
       id="path32"
       inkscape:connector-curvature="0"
       style="fill:#fcaf3e;stroke:#ce5c00;stroke-width:1;stroke-miterlimit:0;stroke-dasharray:none"
       sodipodi:nodetypes="ccccc" />
  </g>
</svg>
